X:1
T:Title
%%score ( 1 2 ) ( 3 4 )
L:1/8
M:4/4
K:Eb
V:1 treble nm="Grand Piano, Unnamed-000"
V:2 treble 
V:3 bass nm="Choir Pad, Judas Maccabeus"
V:4 bass 
V:1
 [EB]4 [EG]3 [FA] | [EB]4 E4 | [DF][EG][FA][GB] [FA]2 [EG]2 | [DF]8 | E-[EA]Bc [EB]2 [EB]2 | %5
w: By~George~Frederick~Handel,~1747 * *|||||
 [Ee]4 [EB]4 | A-[DA] [EG]2 F3 E | E8 | [EG][DF][EG][FA] [EG]2 [EG]2 | [DF]4 [CE]4 | %10
w: |||||
 [FA]2 [EG]2 [DF]2 [CE]2 | [=B,D]8 | [CE][=B,D][CE][DF] [CE]2 [CE]2 | [Ec]4 [E=A]4 | %14
w: ||||
 [DB]2 [Ec][DB] =A3 B | [DB]8 | [EB]4 [EG]3 [FA] | [EB]4 E4 | [DF][EG][FA][GB] [FA]2 [EG]2 | %19
w: |||||
 [DF]8 | GABc [EB]2 [EB]2 | [Ee]4 [EB]4 | A-[DA] [EG]2 F3 E | E8 |] %24
w: |||||
V:2
 x8 | x8 | x8 | x8 | .G2 E2 z4 | x8 | .C2 z2 E2 D2 | x8 | x8 | x8 | x8 | x8 | x8 | x8 | z4 C2 E2 | %15
 x8 | x8 | x8 | x8 | x8 | E2 E2 z4 | x8 | .C2 z2 E2 D2 | x8 |] %24
V:3
 [E,G,]4 [G,B,]3 [F,A,] | [E,G,]4 [G,B,]4 | B,2 [B,,B,]2 [D,B,]2 [E,B,]2 | [B,,B,]8 | B,2 z2 z4 | %5
 [E,G,]4 [E,G,]4 | z2 B,2 z4 | [E,G,]8 | [E,B,]2 [E,B,]2 [E,B,]2 [E,B,]2 | [=B,,A,]4 [C,G,]4 | %10
 [D,=B,]2 [E,C]2 [F,A,]2 [C,G,]2 | G,8 | [C,G,]2 [C,G,]2 [C,G,]2 [C,G,]2 | [F,=A,]4 [F,C]4 | %14
 [G,B,]2 [E,G,]2 F,2 [F,,F,]2 | [B,,F,]8 | [E,G,]4 [G,B,]3 [F,A,] | [E,G,]4 [G,B,]4 | %18
 B,2 [B,,B,]2 [D,B,]2 [E,B,]2 | [B,,B,]8 | B,2 z2 z4 | [G,B,]4 [E,G,]4 | z2 B,2 z4 | [E,G,]8 |] %24
V:4
 x8 | x8 | x8 | x8 | E,F,[G,B,]A, [G,B,]2 [G,B,]2 | x8 | [F,A,]2 G,A, B,2 [B,,A,]2 | x8 | x8 | x8 | %10
 x8 | x8 | x8 | x8 | x8 | x8 | x8 | x8 | x8 | x8 | E,F,[G,B,]A, [G,B,]2 [G,B,]2 | x8 | %22
 [F,A,]2 G,A, B,2 [B,,A,]2 | x8 |] %24

